img/00top/菜.svg

<svg width="181" height="187" viewBox="0 0 181 187" fill="none" xmlns="http://www.w3.org/2000/svg">
<path d="M155 15.4C155.533 14.6 156.267 13.5333 157.2 12.2C158.133 10.8667 158.867 9.86666 159.4 9.2C160.067 8.53333 160.667 8.2 161.2 8.2C162 8.2 163.933 9.46666 167 12C170.2 14.4 173.133 17 175.8 19.8C178.6 22.4667 180 24.2667 180 25.2C179.6 27.3333 177.933 28.4 175 28.4H125V38C125 38.8 123.4 39.6667 120.2 40.6C117 41.5333 113.733 42 110.4 42C107.733 42 106.4 40.6667 106.4 38C106.4 37.7333 106.667 36.0667 107.2 33V28.4H71.2V33.2C71.6 38.2667 71.8667 41.0667 72 41.6C71.6 42.8 69.8 44 66.6 45.2C63.4 46.4 60.2 47 57 47C54.3333 47 53 45.6667 53 43C53 43 53.2667 40.2 53.8 34.6V28.4H35.2C25.7333 28.5333 15.7333 29.4667 5.2 31.2L0.200001 21C7.53333 21.8 16.4 22.3333 26.8 22.6H53.8C53.8 13.5333 53.3333 6.13332 52.4 0.39999C61.3333 2.53333 67.5333 4.33333 71 5.79999C74.4667 7.13332 76.2 8.26666 76.2 9.2C76.2 9.73333 75.6667 10.3333 74.6 11L71.2 13V22.6H107.2C107.2 13.6667 106.733 6.33333 105.8 0.599988C115 2.86666 121.333 4.66666 124.8 5.99999C128.267 7.33332 130 8.46666 130 9.39999C130 9.93333 129.467 10.5333 128.4 11.2L125 13.2V22.6H150.2L155 15.4ZM161 54.4C160.067 55.3333 158.733 55.8 157 55.8C154.867 55.8 152.533 55.2 150 54C133.6 56.8 114.667 59.0667 93.2 60.8C71.7333 62.5333 50.6 63.4 29.8 63.4L15.8 63.2L15.4 59.6C37.4 58 60.6667 55.1333 85.2 51C109.867 46.7333 129.6 42.2667 144.4 37.6L152.6 46L161 54.4ZM148 66.2C154.533 68.8667 157.8 70.9333 157.8 72.4C157.8 73.0667 157 73.6 155.4 74L151.4 74.8C146.067 81.6 140 88 133.2 94C126.533 100 119.867 105.067 113.2 109.2L111 107C112.867 104.6 115 101.533 117.4 97.8C120.867 92.2 124.267 85.6 127.6 78C130.933 70.2667 133.267 63.7333 134.6 58.4L148 66.2ZM73.6 63.8C82.2667 66.3333 88.6 69.6667 92.6 73.8C96.7333 77.8 98.8 81.9333 98.8 86.2C98.8 89.1333 97.9333 91.6 96.2 93.6C94.4667 95.6 92.3333 96.6 89.8 96.6C87.1333 96.6 84.6667 95.5333 82.4 93.4C82.1333 88.8667 80.9333 84 78.8 78.8C76.6667 73.4667 74.2667 68.8667 71.6 65L73.6 63.8ZM28.6 69.2C38.4667 72.2667 45.6667 76.2 50.2 81C54.8667 85.8 57.2 90.6 57.2 95.4C57.2 98.4667 56.3333 101.067 54.6 103.2C52.8667 105.2 50.7333 106.2 48.2 106.2C45.6667 106.2 43.1333 105.133 40.6 103C40.3333 97.6667 38.8 92 36 86C33.3333 80 30.2 74.8 26.6 70.4L28.6 69.2ZM152.4 109.2C153.067 108.267 153.8 107.267 154.6 106.2C155.4 105 156.2 104 157 103.2C157.8 102.267 158.467 101.8 159 101.8C159.8 101.8 161.8 103.067 165 105.6C168.333 108.133 171.4 110.8 174.2 113.6C177.133 116.4 178.6 118.267 178.6 119.2C178.067 121.333 176.267 122.4 173.2 122.4H106.2C114.467 131.067 125.4 138.6 139 145C152.733 151.4 166.733 156 181 158.8L180.8 161C177.067 161.933 173.867 163.933 171.2 167C168.667 170.067 166.867 174 165.8 178.8C151.667 173.467 139.067 166.067 128 156.6C116.933 147 108 135.6 101.2 122.4H99.2V142.2C99.6 158.867 100.067 171.733 100.6 180.8C99.9333 182.267 97.9333 183.667 94.6 185C91.2667 186.333 87.8667 187 84.4 187C82.8 187 81.6 186.6 80.8 185.8C80 185 79.6 184.067 79.6 183C80.1333 175.533 80.6 165.4 81 152.6V135.4C71.8 145.533 60.5333 154.533 47.2 162.4C34 170.267 19.2 176.867 2.8 182.2L1.4 179.2C15 172.533 27.4 164.2 38.6 154.2C49.9333 144.2 59.2 133.6 66.4 122.4H37.6C28.1333 122.533 18.1333 123.467 7.6 125.2L2.4 115C9.73333 115.8 18.6 116.333 29 116.6H81C81 109 80.6 102.4 79.8 96.8C89 99.0667 95.3333 100.867 98.8 102.2C102.4 103.4 104.2 104.467 104.2 105.4C104.2 105.933 103.667 106.533 102.6 107.2L99.2 109.2V116.6H147.2L152.4 109.2Z" fill="black"/>
</svg>

<svg width="181" height="187" fill="none" xmlns="http://www.w3.org/2000/svg"><path d="M155 15.4c.533-.8 1.267-1.867 2.2-3.2.933-1.333 1.667-2.333 2.2-3 .667-.667 1.267-1 1.8-1 .8 0 2.733 1.267 5.8 3.8 3.2 2.4 6.133 5 8.8 7.8 2.8 2.667 4.2 4.467 4.2 5.4-.4 2.133-2.067 3.2-5 3.2h-50V38c0 .8-1.6 1.667-4.8 2.6-3.2.933-6.467 1.4-9.8 1.4-2.667 0-4-1.333-4-4 0-.267.267-1.933.8-5v-4.6h-36v4.8c.4 5.067.667 7.867.8 8.4-.4 1.2-2.2 2.4-5.4 3.6-3.2 1.2-6.4 1.8-9.6 1.8-2.667 0-4-1.333-4-4l.8-8.4v-6.2H35.2c-9.467.133-19.467 1.067-30 2.8L.2 21c7.333.8 16.2 1.333 26.6 1.6h27c0-9.067-.467-16.467-1.4-22.2C61.333 2.533 67.533 4.333 71 5.8c3.467 1.333 5.2 2.467 5.2 3.4 0 .533-.533 1.133-1.6 1.8l-3.4 2v9.6h36c0-8.933-.467-16.267-1.4-22 9.2 2.267 15.533 4.067 19 5.4 3.467 1.333 5.2 2.467 5.2 3.4 0 .533-.533 1.133-1.6 1.8l-3.4 2v9.4h25.2l4.8-7.2Zm6 39c-.933.933-2.267 1.4-4 1.4-2.133 0-4.467-.6-7-1.8-16.4 2.8-35.333 5.067-56.8 6.8-21.467 1.733-42.6 2.6-63.4 2.6l-14-.2-.4-3.6c22-1.6 45.267-4.467 69.8-8.6 24.667-4.267 44.4-8.733 59.2-13.4l8.2 8.4 8.4 8.4Zm-13 11.8c6.533 2.667 9.8 4.733 9.8 6.2 0 .667-.8 1.2-2.4 1.6l-4 .8C146.067 81.6 140 88 133.2 94c-6.667 6-13.333 11.067-20 15.2L111 107c1.867-2.4 4-5.467 6.4-9.2 3.467-5.6 6.867-12.2 10.2-19.8 3.333-7.733 5.667-14.267 7-19.6l13.4 7.8Zm-74.4-2.4c8.667 2.533 15 5.867 19 10 4.133 4 6.2 8.133 6.2 12.4 0 2.933-.867 5.4-2.6 7.4s-3.867 3-6.4 3c-2.667 0-5.133-1.067-7.4-3.2-.267-4.533-1.467-9.4-3.6-14.6-2.133-5.333-4.533-9.933-7.2-13.8l2-1.2Zm-45 5.4c9.867 3.067 17.067 7 21.6 11.8 4.667 4.8 7 9.6 7 14.4 0 3.067-.867 5.667-2.6 7.8-1.733 2-3.867 3-6.4 3-2.533 0-5.067-1.067-7.6-3.2-.267-5.333-1.8-11-4.6-17-2.667-6-5.8-11.2-9.4-15.6l2-1.2Zm123.8 40c.667-.933 1.4-1.933 2.2-3 .8-1.2 1.6-2.2 2.4-3 .8-.933 1.467-1.4 2-1.4.8 0 2.8 1.267 6 3.8a89.97 89.97 0 0 1 9.2 8c2.933 2.8 4.4 4.667 4.4 5.6-.533 2.133-2.333 3.2-5.4 3.2h-67c8.267 8.667 19.2 16.2 32.8 22.6 13.733 6.4 27.733 11 42 13.8l-.2 2.2c-3.733.933-6.933 2.933-9.6 6-2.533 3.067-4.333 7-5.4 11.8-14.133-5.333-26.733-12.733-37.8-22.2-11.067-9.6-20-21-26.8-34.2h-2v19.8c.4 16.667.867 29.533 1.4 38.6-.667 1.467-2.667 2.867-6 4.2-3.333 1.333-6.733 2-10.2 2-1.6 0-2.8-.4-3.6-1.2-.8-.8-1.2-1.733-1.2-2.8.533-7.467 1-17.6 1.4-30.4v-17.2c-9.2 10.133-20.467 19.133-33.8 27-13.2 7.867-28 14.467-44.4 19.8l-1.4-3c13.6-6.667 26-15 37.2-25 11.333-10 20.6-20.6 27.8-31.8H37.6c-9.467.133-19.467 1.067-30 2.8L2.4 115c7.333.8 16.2 1.333 26.6 1.6h52c0-7.6-.4-14.2-1.2-19.8 9.2 2.267 15.533 4.067 19 5.4 3.6 1.2 5.4 2.267 5.4 3.2 0 .533-.533 1.133-1.6 1.8l-3.4 2v7.4h48l5.2-7.4Z" fill="#000"/></svg>
